src/assets/duotone/RefreshCircle.svg

<svg width="24" height="24" viewBox="0 0 24 24"  xmlns="http://www.w3.org/2000/svg">
<path opacity="0.4" d="M12 22C17.5228 22 22 17.5228 22 12C22 6.47715 17.5228 2 12 2C6.47715 2 2 6.47715 2 12C2 17.5228 6.47715 22 12 22Z" />
<path d="M16.7601 11.9296C16.3401 11.8596 15.9701 12.1596 15.9101 12.5696C15.7901 13.4396 15.4 14.2196 14.8 14.8196C13.42 16.1996 11.2801 16.3396 9.73007 15.2696H10.4801C10.8901 15.2696 11.2301 14.9296 11.2301 14.5196C11.2301 14.1096 10.8901 13.7696 10.4801 13.7696H7.81006C7.40006 13.7696 7.06006 14.1096 7.06006 14.5196V17.1896C7.06006 17.5996 7.40006 17.9396 7.81006 17.9396C8.22006 17.9396 8.56006 17.5996 8.56006 17.1896V16.2496C9.56006 17.0596 10.7701 17.4896 11.9901 17.4896C13.3901 17.4896 14.79 16.9596 15.86 15.8896C16.69 15.0596 17.2201 13.9896 17.3901 12.7896C17.4601 12.3596 17.1701 11.9796 16.7601 11.9296Z" />
<path d="M7.33993 12.0798C7.70993 12.0798 8.02992 11.8098 8.07992 11.4398C8.19992 10.5698 8.58993 9.78982 9.18993 9.18982C10.5699 7.80982 12.7099 7.66981 14.2599 8.73981H13.5099C13.0999 8.73981 12.7599 9.07981 12.7599 9.48981C12.7599 9.89981 13.0999 10.2398 13.5099 10.2398H16.1799C16.5899 10.2398 16.9299 9.89981 16.9299 9.48981V6.81982C16.9299 6.40982 16.5899 6.06982 16.1799 6.06982C15.7699 6.06982 15.4299 6.40982 15.4299 6.81982V7.75983C13.2799 6.01983 10.1299 6.12981 8.13995 8.11981C7.30995 8.94981 6.77992 10.0198 6.60992 11.2198C6.54992 11.6298 6.83993 12.0098 7.24993 12.0698C7.26993 12.0798 7.30993 12.0798 7.33993 12.0798Z" />
</svg>

<?xml version="1.0" encoding="UTF-8"?>
<svg width="24" height="24" viewBox="0 0 24 24" xmlns="http://www.w3.org/2000/svg">
 <path d="m12 22c5.5228 0 10-4.4772 10-10 0-5.5228-4.4772-10-10-10-5.5228 0-10 4.4772-10 10 0 5.5228 4.4772 10 10 10z" opacity=".4"/>
 <path d="m16.76 11.93c-0.42-0.07-0.79 0.23-0.85 0.64-0.12 0.87-0.5101 1.65-1.1101 2.25-1.38 1.38-3.5199 1.52-5.0699 0.45h0.75003c0.41 0 0.75-0.34 0.75-0.75s-0.34-0.75-0.75-0.75h-2.67c-0.41 0-0.75 0.34-0.75 0.75v2.67c0 0.41 0.34 0.75 0.75 0.75s0.75-0.34 0.75-0.75v-0.94c1 0.81 2.21 1.24 3.43 1.24 1.4 0 2.7999-0.53 3.8699-1.6 0.83-0.83 1.3601-1.9 1.5301-3.1 0.07-0.43-0.22-0.81-0.63-0.86z"/>
 <path d="m7.3399 12.08c0.37 0 0.68999-0.27 0.73999-0.64 0.12-0.87 0.51001-1.65 1.11-2.25 1.38-1.38 3.52-1.52 5.07-0.45001h-0.75c-0.41 0-0.75 0.34-0.75 0.75s0.34 0.74999 0.75 0.74999h2.67c0.41 0 0.75-0.33999 0.75-0.74999v-2.67c0-0.41-0.34-0.75-0.75-0.75s-0.75 0.34-0.75 0.75v0.94001c-2.15-1.74-5.3-1.63-7.29 0.35998-0.83 0.83-1.36 1.9-1.53 3.1-0.06 0.41 0.23001 0.79 0.64001 0.85 0.02 0.01 0.06 0.01 0.09 0.01z"/>
</svg>
